src/16/panel/riot-tray.svg

<svg xmlns="http://www.w3.org/2000/svg" width="16" height="16" version="1.1">
 <defs>
  <style id="current-color-scheme" type="text/css">
   .ColorScheme-Text { color:#bebebe; } .ColorScheme-Highlight { color:#5294e2; }
  </style>
 </defs>
 <path style="fill:currentColor" class="ColorScheme-Text" d="M 5 1 A 2 2 0 0 0 3 3 A 2 2 0 0 0 5 5 A 2 2 0 0 0 7 3 A 2 2 0 0 0 5 1 z M 7.2304688 1 A 3 3 0 0 1 8 3 A 3 3 0 0 1 5 6 A 3 3 0 0 1 3 5.2324219 L 3 13 C 3 14.108 3.892 15 5 15 C 6.108 15 7 14.108 7 13 L 7 12.125 L 5.7558594 9.96875 C 4.9590911 8.5887068 5.5752504 6.8384849 6.953125 6.0429688 C 7.4698279 5.7446501 8.0488332 5.6068568 8.6132812 5.6230469 C 9.5540285 5.6500304 10.453192 6.106223 10.951172 6.96875 L 11.572266 8.0429688 C 12.439032 7.3103556 13 6.2289505 13 5 C 13 2.784 11.216 1 9 1 L 7.2304688 1 z M 8.5761719 6.6171875 C 8.2029699 6.6089858 7.8129586 6.7024063 7.453125 6.9101562 C 6.4935689 7.4641563 6.1224938 8.6071026 6.6210938 9.4707031 L 9.3222656 14.146484 C 9.8208656 15.010085 10.993569 15.259078 11.953125 14.705078 C 12.912681 14.151078 13.283756 13.010085 12.785156 12.146484 L 10.085938 7.4707031 C 9.7743125 6.9309528 9.1981752 6.630857 8.5761719 6.6171875 z"/>
</svg>

<svg xmlns="http://www.w3.org/2000/svg" width="16" height="16"><defs><style id="current-color-scheme" type="text/css"></style></defs><path d="M5 1a2 2 0 0 0-2 2 2 2 0 0 0 2 2 2 2 0 0 0 2-2 2 2 0 0 0-2-2zm2.23 0A3 3 0 0 1 8 3a3 3 0 0 1-3 3 3 3 0 0 1-2-.768V13c0 1.108.892 2 2 2s2-.892 2-2v-.875L5.756 9.969c-.797-1.38-.18-3.13 1.197-3.926a3.146 3.146 0 0 1 1.66-.42c.941.027 1.84.483 2.338 1.346l.621 1.074A3.969 3.969 0 0 0 13 5c0-2.216-1.784-4-4-4H7.23zm1.346 5.617a2.153 2.153 0 0 0-1.123.293c-.96.554-1.33 1.697-.832 2.56l2.701 4.676c.499.864 1.672 1.113 2.631.56.96-.555 1.33-1.696.832-2.56l-2.7-4.675c-.31-.54-.887-.84-1.509-.854z" fill="currentColor" color="#bebebe"/></svg>
